24x24/apps/net.runelite.RuneLite.svg

<svg xmlns="http://www.w3.org/2000/svg" width="24" height="24" version="1">
 <rect style="opacity:0.2" width="20" height="20" x="2" y="2.5" rx="6" ry="6"/>
 <rect style="fill:#4f4f4f" width="20" height="20" x="2" y="2" rx="6" ry="6"/>
 <path style="opacity:0.1;fill:#f4f4f7" d="M 8,2 C 4.676,2 2,4.676 2,8 v 0.5 c 0,-3.324 2.676,-6 6,-6 h 8 c 3.324,0 6,2.676 6,6 V 8 C 22,4.676 19.324,2 16,2 Z"/>
 <path style="opacity:0.2" d="M 9,5.5 C 9,5.866114 9.2064683,6.1734106 9.5,6.3476562 V 8.5058594 C 9.0355972,8.509828 8.5730994,8.5213554 8.2246094,8.6054688 7.8433049,8.6975037 7.5,9 7.5,9.5 L 8,9.75 C 8,9.75 8.2606295,9.542663 8.5,9.5 8.6309804,9.476656 8.8111653,9.51213 9,9.568359 V 12.5 l -1,1 1,1 v 3.75 l 1,1.25 1,-1.25 V 9.5683594 C 11.188835,9.5121298 11.36902,9.4766563 11.5,9.5 11.739371,9.542665 12,9.75 12,9.75 L 12.5,9.5 C 12.5,9 12.156695,8.6975037 11.775391,8.6054688 11.426901,8.5213536 10.964403,8.5098275 10.5,8.5058594 V 6.3476562 C 10.793532,6.1734106 11,5.866114 11,5.5 Z m 3.568359,3 C 12.822288,8.74611 13,9.0875565 13,9.5 12.999962,9.6237585 12.954035,9.7421294 12.871094,9.8339844 13.642625,10.278292 14.026954,10.467973 14,11.431641 13.962211,12.782666 13.389399,13.100977 12,13.5 l 0.853516,1.615234 c 0.700712,1.323745 1.917811,2.19178 3.285156,2.875 C 17.687578,18.764175 19.255062,19.291041 21,19.5 19.784714,18.368783 18.398895,17.612756 17.072266,16.642578 15.955009,15.825517 15.244991,15.1869 14.5,14 15.215331,13.258562 15.949297,12.350981 16,11.283203 16.06686,9.8751161 15.000976,8.5 14.044922,8.5 Z"/>
 <path style="fill:#aeaeae" d="M 9 5 C 9 5.366114 9.2064683 5.6734106 9.5 5.8476562 L 9.5 8.0058594 C 9.0355972 8.009828 8.5730994 8.0213554 8.2246094 8.1054688 C 7.8433049 8.1975037 7.5 8.5 7.5 9 L 8 9.25 C 8 9.25 8.2606295 9.042663 8.5 9 C 8.6309804 8.9766563 8.8111653 9.0121298 9 9.0683594 L 9 12.001953 L 8.0019531 13 L 9 13.998047 L 9 17.75 L 10 19 L 11 17.75 L 11 9.0683594 C 11.188835 9.0121298 11.36902 8.9766563 11.5 9 C 11.739371 9.042665 12 9.25 12 9.25 L 12.5 9 C 12.5 8.5 12.156695 8.1975037 11.775391 8.1054688 C 11.426901 8.0213536 10.964403 8.0098275 10.5 8.0058594 L 10.5 5.8476562 C 10.793532 5.6734106 11 5.366114 11 5 L 9 5 z M 12.568359 8 C 12.822288 8.24611 13 8.5875565 13 9 C 12.999962 9.1237585 12.954035 9.2421294 12.871094 9.3339844 C 13.642625 9.7782925 14.026954 9.9679734 14 10.931641 C 13.962211 12.282666 13.389399 12.600977 12 13 L 12.853516 14.615234 C 13.554228 15.938979 14.771327 16.807014 16.138672 17.490234 C 17.687578 18.264175 19.255062 18.791041 21 19 C 19.784714 17.868783 18.398895 17.112756 17.072266 16.142578 C 15.955009 15.325517 15.244991 14.6869 14.5 13.5 C 15.215331 12.758562 15.949297 11.850981 16 10.783203 C 16.06686 9.3751161 15.000976 8 14.044922 8 L 12.568359 8 z"/>
</svg>

<svg xmlns="http://www.w3.org/2000/svg" width="24" height="24" version="1"><rect style="opacity:.2" width="20" height="20" x="2" y="2.5" rx="6" ry="6"/><rect style="fill:#4f4f4f" width="20" height="20" x="2" y="2" rx="6" ry="6"/><path style="opacity:.1;fill:#f4f4f7" d="M8 2C4.676 2 2 4.676 2 8v.5c0-3.324 2.676-6 6-6h8c3.324 0 6 2.676 6 6V8c0-3.324-2.676-6-6-6z"/><path style="opacity:.2" d="M9 5.5c0 .366.206.673.5.848v2.158c-.464.004-.927.015-1.275.1C7.843 8.697 7.5 9 7.5 9.5l.5.25s.26-.207.5-.25c.131-.023.311.012.5.068V12.5l-1 1 1 1v3.75l1 1.25 1-1.25V9.568c.189-.056.369-.091.5-.068.24.043.5.25.5.25l.5-.25c0-.5-.343-.802-.725-.895-.348-.084-.81-.095-1.275-.1V6.349A.987.987 0 0 0 11 5.5zm3.568 3c.254.246.432.588.432 1a.498.498 0 0 1-.129.334c.772.444 1.156.634 1.129 1.598-.038 1.35-.61 1.669-2 2.068l.854 1.615c.7 1.324 1.917 2.192 3.285 2.875 1.549.774 3.116 1.301 4.861 1.51-1.215-1.131-2.601-1.887-3.928-2.857-1.117-.817-1.827-1.456-2.572-2.643.715-.741 1.45-1.649 1.5-2.717.067-1.408-.999-2.783-1.955-2.783z"/><path style="fill:#aeaeae" d="M9 5c0 .366.206.673.5.848v2.158c-.464.004-.927.015-1.275.1C7.843 8.197 7.5 8.5 7.5 9l.5.25s.26-.207.5-.25c.131-.023.311.012.5.068v2.934L8.002 13l.998.998v3.752L10 19l1-1.25V9.068c.189-.056.369-.091.5-.068.24.043.5.25.5.25l.5-.25c0-.5-.343-.802-.725-.895-.348-.084-.81-.095-1.275-.1V5.849A.987.987 0 0 0 11 5H9zm3.568 3c.254.246.432.588.432 1a.498.498 0 0 1-.129.334c.772.444 1.156.634 1.129 1.598-.038 1.35-.61 1.669-2 2.068l.854 1.615c.7 1.324 1.917 2.192 3.285 2.875 1.549.774 3.116 1.301 4.861 1.51-1.215-1.131-2.601-1.887-3.928-2.857-1.117-.817-1.827-1.456-2.572-2.643.715-.741 1.45-1.649 1.5-2.717C16.067 9.375 15.001 8 14.045 8h-1.477z"/></svg>
